svg/u1f9a5.svg

<svg viewBox="0 0 128 128" xmlns="http://www.w3.org/2000/svg">
  <path d="M36.26,36.96c0,0,0.28-15.35-1.27-20.55c-1.55-5.21-9.43-5.91-9.43-5.91s2.11-7.6,9.01-6.76 s10.91,7.81,13.44,14.15c5.63,14.08,6.69,33.15,6.69,33.15L37.95,91.3l-16.89-4.93L36.26,36.96z" fill="#855C54"/>
  <path d="M62.44,69.77l2.11-2.82c0,0,5.49,2.39,9.29,2.11c3.8-0.28,13.51-2.11,13.51-2.11l0.42,15.91 l-26.33-4.65L62.44,69.77z" fill="#606468"/>
  <path d="M96.09,53.44c0,0-0.7-11.97-0.7-16.75s-2.67-21.26,8.02-20.98c8.16,0.21,6.05,12.25,6.05,12.25 l-2.96,3.52c0,0,4.44,23.21,6.19,29.28c3.52,12.15-0.84,15.77-0.84,15.77l-16.75,2.11L96.09,53.44z" fill="#865B52"/>
  <path d="M11.2,6.41c-4.81,1.35-4.08,5.77-3.94,7.6s1.13,2.11,3.24,2.25c2.11,0.14,18.02,2.96,21.54,3.94 c3.52,0.99,12.67,2.96,20.41,3.66s30.13,4.22,32.24,4.79c2.11,0.56,6.34,2.25,16.33,3.52c10,1.27,15.06,2.53,15.77,1.83 c0.7-0.7,0.42-9.01-0.42-10.28s-14.92-3.38-19.71-3.52c-4.79-0.14-7.6,0.28-7.6,0.28s-11.26-2.25-17.03-3.66s-15.91-2.53-22.81-3.1 c-6.9-0.56-20.84-2.53-20.84-2.53s-6.34-2.72-8.45-3.52C18.74,7.23,15.71,5.15,11.2,6.41z" fill="#727F39"/>
  <path d="M66.95,17.11l-9.01,54.76c0,0,6.76,0.99,8.31-0.84c1.55-1.83,4.04-7.56,4.36-16.89 c0.16-4.5-0.14-18.16-0.14-18.16s6.05,15.2,7.6,19.85c1.55,4.65,5.07,21.26,5.07,21.26l9.15-8.87L73.29,20.21L66.95,17.11z" fill="#865B52"/>
  <path d="M28.09,5.85c1.96,0.6-0.77,3.1-1.27,3.94s-0.92,2.18-0.92,2.18s2.01-2.32,3.38-3.38 c1.55-1.2,3.79-1.88,4.79-0.77c1.34,1.48-0.14,2.04-1.76,3.24c-0.54,0.4-1.3,1.05-1.99,1.88c-0.95,1.14-1.86,2.47-2.31,3.12 c-0.77,1.13-1.97,2.18-3.17,1.76c-0.77-0.27-0.42-2.75-0.42-2.75s-0.07,1.34-1.2,0.7c-1.13-0.63-1.06-4.2-0.07-6.41 C24.16,7.15,26.26,5.29,28.09,5.85z" fill="#F8EAC0"/>
  <path d="M32.53,16.2c2.82-2.89,7.88-4.15,5.98-5.77s-5.56,0.14-7.95,2.75s-3.17,6.05-1.9,6.41 C29.92,19.93,30.86,17.91,32.53,16.2z" fill="#F8EAC0"/>
  <path d="M100.97,18.85c-1.95,0.27-0.46,2.71-0.05,3.71c0.56,1.36,0.94,3.53,1.13,5.82 c0.28,3.43,1.66,3.33,2.39,1.88c0.52-1.03,0.61-2.67,0.61-3.85c0-1.93-0.47-2.86-0.21-2.86c0.42,0,0.96,2.53,1.06,4.18 c0.11,1.92-0.2,3.85,0.84,3.99c1.41,0.19,2.21-1.6,2.3-3.85c0.07-1.77-0.15-3.57,0-3.57c0.14,0,0.75,1.78,0.8,4.13 c0.03,1.36-0.28,3.8,0.8,3.71c1.38-0.12,2.21-4.46,1.69-7.41c-0.42-2.41-2.06-5.07-3.38-5.3c-1.31-0.23-0.94,1.69-0.94,1.69 s-0.75-2.25-2.67-2.39c-1.76-0.13-1.69,1.53-1.69,1.53S102.66,18.62,100.97,18.85z" fill="#F8EAC0"/>
  <path d="M115.57,66.01c-3.23,0.43-7.13,6.48-7.13,6.48s-5.16-10.89-9.39-17.36S84.88,31.57,83.66,27.53 s-1.06-7.21,0.33-7.37c1.27-0.14,0.52-0.75,0.52-0.75s0.58-4.5-3.66-6.24c-3.66-1.5-6.76,0.94-6.76,0.94s-1.69-2.16-6.29-2.16 s-9.24,2.02-11.64,9.48C54.15,27.69,54,39.45,53.9,43.58C53.81,47.71,52.21,57,48.65,63.2c-3.57,6.19-8.63,12.76-9.2,16.05 s0.66,7.51-2.06,7.32c-2.72-0.19-4.6-3.1-2.44-7.6s6.29-9.57,6.29-9.57l6.29-20.46l3.66,1.69c1.03-4.32,2.16-11.17-9.29-16.61 S11.97,32.78,7.96,47.38c-1.31,4.79-1.41,9.49-1.41,13.23c0,6.34,1.84,14.7,3.66,20.84c2.72,9.2,7.19,15.97,8.68,18.54 c3.1,5.35,8.77,11.42,9.67,11.07c1-0.39,1.22-2.63,1.22-2.63s2.16,2.82,6.57,6.01c4.41,3.19,10.98,7.79,12.39,7.23 c1.41-0.56-0.56-3.38-0.56-3.38s5.02,2.72,10.04,4.04c3.94,1.03,12.58,1.31,12.48,0s-3.19-2.63-2.82-3.57c0.38-0.94,1.78,1.7,10.8,1 c6.58-0.52,18.29-3.9,24.86-13.85c6.57-9.95,10.32-17.46,12.76-22.43s5.43-9.34,5.91-11.54C122.7,69.77,122.7,65.07,115.57,66.01z M83,70.42c-0.44,1.32-4.6,2.72-8.92,2.82c-4.32,0.09-8.17-1.22-9.29-3.19c-1.13-1.97,1.5-5.07,2.44-11.17s0.47-17.46,0.56-24.5 c0.09-7.04,2.16-13.98,2.16-13.98s0.19,6.57,0.66,9.48c0.42,2.6,1.31,5.44,2.63,9.1c0.97,2.69,5.35,10.7,7.41,17.46 C82.72,63.2,83.66,68.45,83,70.42z" fill="#AE9580"/>
  <path d="M33.07,42.17c-6.01-0.38-4.5-2.72-9.85-3c-5.35-0.28-12.02,6.47-12.11,14.08 c-0.09,8.07,5.35,18.58,19.8,19.24c5.53,0.25,8.45-0.61,8.45-0.61c3.85-5.44,7.27-9.85,9.57-14.27c1.44-2.76,1.92-5.02,2.39-7.37 c0.42-2.1,0.2-4.06-2.77-6.85C42.46,37.66,38.03,42.48,33.07,42.17z" fill="#FEEAC7"/>
  <path d="M19.37,46.68l3.45,5.88c0,0-2.65,1.11-4.34,2.8c-1.69,1.69-5.58,6.22-5.58,6.22s-1.24-2.79-1.57-4.95 c-0.33-2.16-0.21-3.94-0.21-3.94s1.6-1.78,3.75-3.28S19.37,46.68,19.37,46.68z" fill="#5C6268"/>
  <path d="M43.39,47.71l-3.66,5.07c0,0,2.49,2.02,4.18,3.89s3.33,3.89,3.33,3.89s1.03-1.13,2.11-3.43 c0.93-1.98,1.27-3.8,1.27-3.8s-2.39-2.25-3.71-3.14S43.39,47.71,43.39,47.71z" fill="#5C6268"/>
  <ellipse cx="21.18" cy="49.59" fill="#010605" rx="3.44" ry="3.43"/>
  <ellipse cx="41.93" cy="50.39" fill="#010605" rx="3.36" ry="3.29"/>
  <path d="M31.94,48.41c-3.54-0.41-5.54,2.06-5.54,2.06s0.8,1.31,1.83,2.77c0.4,0.57,1.27,1.88,1.27,2.3 c0,0.42-1.87,0.82-3.14,0.75c-2.44-0.14-3.47-2.06-4.55-1.27c-1.08,0.8,0.23,2.72,1.5,3.33c1.27,0.61,2.77,0.96,4.27,0.8 c1.74-0.19,3.61-1.22,3.61-1.22s2.18,1.55,3.14,1.78c2.53,0.61,4.13,0.09,5.49-0.94c0.85-0.65,1.81-2.39,1.13-2.82 c-1.5-0.94-2.21,1.41-4.36,1.41c-2.16,0-3.57-1.69-3.57-1.69s1.1-1.29,1.64-1.74c0.8-0.66,2.25-2.35,2.25-2.35 S35.98,48.88,31.94,48.41z" fill="#010605"/>
  <path d="M34.99,101.63c-1.01,1.25-6.01-3.52-7.6-5.54s-4.13-5.16-2.39-6.57c1.74-1.41,4.04,3,5.49,4.97 S35.6,100.88,34.99,101.63z" fill="#CDAC93"/>
  <path d="M40.34,100.5c-2.17,2.31,2.06,6.01,5.68,8.63s9.29,3.99,9.85,3.19c0.56-0.8-3.94-2.96-7.74-6.01 S41.8,98.95,40.34,100.5z" fill="#CDAC93"/>
  <path d="M52.07,103.74c-0.77,1.78,3.24,5.16,9.06,6.1c5.82,0.94,11.95-0.57,11.78-2.02 c-0.14-1.22-3.33-0.09-11.12-1.78C55.81,104.74,53.01,101.58,52.07,103.74z" fill="#CDAC93"/>
  <path d="M60.85,98.34c-0.22,1.44,3,3.05,7.93,2.82s8.26-2.44,8.07-3.43s-4.69,0.23-8.21,0.28 C65.12,98.06,61.32,95.29,60.85,98.34z" fill="#CDAC93"/>
  <path d="M65.45,114.3c-0.05,2.46,7.29,2.12,11.92,0.47c5.68-2.02,8.68-6.66,7.84-7.51 c-0.84-0.84-3.85,3.05-9.71,4.5C72.79,112.43,65.5,111.86,65.45,114.3z" fill="#CDAC93"/>
</svg>

<svg viewBox="0 0 128 128" xmlns="http://www.w3.org/2000/svg">
  <defs/>
  <path d="M36.26,36.96 C36.26,36.96 36.54,21.61 34.99,16.41 C33.44,11.2 25.56,10.5 25.56,10.5 C25.56,10.5 27.67,2.9 34.57,3.74 C41.47,4.58 45.48,11.55 48.01,17.89 C53.64,31.97 54.7,51.04 54.7,51.04 L37.95,91.3 L21.06,86.37 L36.26,36.96 Z" fill="#855C54"/>
  <path d="M62.44,69.77 L64.55,66.95 C64.55,66.95 70.04,69.34 73.84,69.06 C77.64,68.78 87.35,66.95 87.35,66.95 L87.77,82.86 L61.44,78.21 L62.44,69.77 Z" fill="#606468"/>
  <path d="M96.09,53.44 C96.09,53.44 95.39,41.47 95.39,36.69 C95.39,31.91 92.72,15.43 103.41,15.71 C111.57,15.92 109.46,27.96 109.46,27.96 L106.5,31.48 C106.5,31.48 110.94,54.69 112.69,60.76 C116.21,72.91 111.85,76.53 111.85,76.53 L95.1,78.64 L96.09,53.44 Z" fill="#865B52"/>
  <path d="M11.2,6.41 C6.39,7.76 7.12,12.18 7.26,14.01 C7.4,15.84 8.39,16.12 10.5,16.26 C12.61,16.4 28.52,19.22 32.04,20.2 C35.56,21.19 44.71,23.16 52.45,23.86 C60.19,24.56 82.58,28.08 84.69,28.65 C86.8,29.21 91.03,30.9 101.02,32.17 C111.02,33.44 116.08,34.7 116.79,34 C117.49,33.3 117.21,24.99 116.37,23.72 C115.53,22.45 101.45,20.34 96.66,20.2 C91.87,20.06 89.06,20.48 89.06,20.48 C89.06,20.48 77.8,18.23 72.03,16.82 C66.26,15.41 56.12,14.29 49.22,13.72 C42.32,13.16 28.38,11.19 28.38,11.19 C28.38,11.19 22.04,8.47 19.93,7.67 C18.74,7.23 15.71,5.15 11.2,6.41 Z" fill="#727F39"/>
  <path d="M66.95,17.11 L57.94,71.87 C57.94,71.87 64.7,72.86 66.25,71.03 C67.8,69.2 70.29,63.47 70.61,54.14 C70.77,49.64 70.47,35.98 70.47,35.98 C70.47,35.98 76.52,51.18 78.07,55.83 C79.62,60.48 83.14,77.09 83.14,77.09 L92.29,68.22 L73.29,20.21 L66.95,17.11 Z" fill="#865B52"/>
  <path d="M28.09,5.85 C30.05,6.45 27.32,8.95 26.82,9.79 C26.32,10.63 25.9,11.97 25.9,11.97 C25.9,11.97 27.91,9.65 29.28,8.59 C30.83,7.39 33.07,6.71 34.07,7.82 C35.41,9.3 33.93,9.86 32.31,11.06 C31.77,11.46 31.01,12.11 30.32,12.94 C29.37,14.08 28.46,15.41 28.01,16.06 C27.24,17.19 26.04,18.24 24.84,17.82 C24.07,17.55 24.42,15.07 24.42,15.07 C24.42,15.07 24.35,16.41 23.22,15.77 C22.09,15.14 22.16,11.57 23.15,9.36 C24.16,7.15 26.26,5.29 28.09,5.85 Z" fill="#F8EAC0"/>
  <path d="M32.53,16.2 C35.35,13.31 40.41,12.05 38.51,10.43 C36.61,8.81 32.95,10.57 30.56,13.18 C28.17,15.79 27.39,19.23 28.66,19.59 C29.92,19.93 30.86,17.91 32.53,16.2 Z" fill="#F8EAC0"/>
  <path d="M100.97,18.85 C99.02,19.12 100.51,21.56 100.92,22.56 C101.48,23.92 101.86,26.09 102.05,28.38 C102.33,31.81 103.71,31.71 104.44,30.26 C104.96,29.23 105.05,27.59 105.05,26.41 C105.05,24.48 104.58,23.55 104.84,23.55 C105.26,23.55 105.8,26.08 105.9,27.73 C106.01,29.65 105.7,31.58 106.74,31.72 C108.15,31.91 108.95,30.12 109.04,27.87 C109.11,26.1 108.89,24.3 109.04,24.3 C109.18,24.3 109.79,26.08 109.84,28.43 C109.87,29.79 109.56,32.23 110.64,32.14 C112.02,32.02 112.85,27.68 112.33,24.73 C111.91,22.32 110.27,19.66 108.95,19.43 C107.64,19.2 108.01,21.12 108.01,21.12 C108.01,21.12 107.26,18.87 105.34,18.73 C103.58,18.6 103.65,20.26 103.65,20.26 C103.65,20.26 102.66,18.62 100.97,18.85 Z" fill="#F8EAC0"/>
  <path d="M115.57,66.01 C112.34,66.44 108.44,72.49 108.44,72.49 C108.44,72.49 103.28,61.6 99.05,55.13 C94.82,48.66 84.88,31.57 83.66,27.53 C82.44,23.49 82.6,20.32 83.99,20.16 C85.26,20.02 84.51,19.41 84.51,19.41 C84.51,19.41 85.09,14.91 80.85,13.17 C77.19,11.67 74.09,14.11 74.09,14.11 C74.09,14.11 72.4,11.95 67.8,11.95 C63.2,11.95 58.56,13.97 56.16,21.43 C54.15,27.69 54,39.45 53.9,43.58 C53.81,47.71 52.21,57 48.65,63.2 C45.08,69.39 40.02,75.96 39.45,79.25 C38.88,82.54 40.11,86.76 37.39,86.57 C34.67,86.38 32.79,83.47 34.95,78.97 C37.11,74.47 41.24,69.4 41.24,69.4 L47.53,48.94 L51.19,50.63 C52.22,46.31 53.35,39.46 41.9,34.02 C30.45,28.58 11.97,32.78 7.96,47.38 C6.65,52.17 6.55,56.87 6.55,60.61 C6.55,66.95 8.39,75.31 10.21,81.45 C12.93,90.65 17.4,97.42 18.89,99.99 C21.99,105.34 27.66,111.41 28.56,111.06 C29.56,110.67 29.78,108.43 29.78,108.43 C29.78,108.43 31.94,111.25 36.35,114.44 C40.76,117.63 47.33,122.23 48.74,121.67 C50.15,121.11 48.18,118.29 48.18,118.29 C48.18,118.29 53.2,121.01 58.22,122.33 C62.16,123.36 70.8,123.64 70.7,122.33 C70.6,121.02 67.51,119.7 67.88,118.76 C68.26,117.82 69.66,120.46 78.68,119.76 C85.26,119.24 96.97,115.86 103.54,105.91 C110.11,95.96 113.86,88.45 116.3,83.48 C118.74,78.51 121.73,74.14 122.21,71.94 C122.7,69.77 122.7,65.07 115.57,66.01 Z M83,70.42 C82.56,71.74 78.4,73.14 74.08,73.24 C69.76,73.33 65.91,72.02 64.79,70.05 C63.66,68.08 66.29,64.98 67.23,58.88 C68.17,52.78 67.7,41.42 67.79,34.38 C67.88,27.34 69.95,20.4 69.95,20.4 C69.95,20.4 70.14,26.97 70.61,29.88 C71.03,32.48 71.92,35.32 73.24,38.98 C74.21,41.67 78.59,49.68 80.65,56.44 C82.72,63.2 83.66,68.45 83,70.42 Z" fill="#AE9580"/>
  <path d="M33.07,42.17 C27.06,41.79 28.57,39.45 23.22,39.17 C17.87,38.89 11.2,45.64 11.11,53.25 C11.02,61.32 16.46,71.83 30.91,72.49 C36.44,72.74 39.36,71.88 39.36,71.88 C43.21,66.44 46.63,62.03 48.93,57.61 C50.37,54.85 50.85,52.59 51.32,50.24 C51.74,48.14 51.52,46.18 48.55,43.39 C42.46,37.66 38.03,42.48 33.07,42.17 Z" fill="#FEEAC7"/>
  <path d="M19.37,46.68 L22.82,52.56 C22.82,52.56 20.17,53.67 18.48,55.36 C16.79,57.05 12.9,61.58 12.9,61.58 C12.9,61.58 11.66,58.79 11.33,56.63 C11,54.47 11.12,52.69 11.12,52.69 C11.12,52.69 12.72,50.91 14.87,49.41 C17.02,47.91 19.37,46.68 19.37,46.68 Z" fill="#5C6268"/>
  <path d="M43.39,47.71 L39.73,52.78 C39.73,52.78 42.22,54.8 43.91,56.67 C45.6,58.54 47.24,60.56 47.24,60.56 C47.24,60.56 48.27,59.43 49.35,57.13 C50.28,55.15 50.62,53.33 50.62,53.33 C50.62,53.33 48.23,51.08 46.91,50.19 C45.59,49.3 43.39,47.71 43.39,47.71 Z" fill="#5C6268"/>
  <path d="M24.62,49.59 A3.44 3.43 0 1 1 17.74,49.59 A3.44 3.43 0 1 1 24.62,49.59 Z" fill="#010605"/>
  <path d="M45.29,50.39 A3.36 3.29 0 1 1 38.57,50.39 A3.36 3.29 0 1 1 45.29,50.39 Z" fill="#010605"/>
  <path d="M31.94,48.41 C28.4,48 26.4,50.47 26.4,50.47 C26.4,50.47 27.2,51.78 28.23,53.24 C28.63,53.81 29.5,55.12 29.5,55.54 C29.5,55.96 27.63,56.36 26.36,56.29 C23.92,56.15 22.89,54.23 21.81,55.02 C20.73,55.82 22.04,57.74 23.31,58.35 C24.58,58.96 26.08,59.31 27.58,59.15 C29.32,58.96 31.19,57.93 31.19,57.93 C31.19,57.93 33.37,59.48 34.33,59.71 C36.86,60.32 38.46,59.8 39.82,58.77 C40.67,58.12 41.63,56.38 40.95,55.95 C39.45,55.01 38.74,57.36 36.59,57.36 C34.43,57.36 33.02,55.67 33.02,55.67 C33.02,55.67 34.12,54.38 34.66,53.93 C35.46,53.27 36.91,51.58 36.91,51.58 C36.91,51.58 35.98,48.88 31.94,48.41 Z" fill="#010605"/>
  <path d="M34.99,101.63 C33.98,102.88 28.98,98.11 27.39,96.09 C25.8,94.07 23.26,90.93 25,89.52 C26.74,88.11 29.04,92.52 30.49,94.49 C31.94,96.46 35.6,100.88 34.99,101.63 Z" fill="#CDAC93"/>
  <path d="M40.34,100.5 C38.17,102.81 42.4,106.51 46.02,109.13 C49.64,111.75 55.31,113.12 55.87,112.32 C56.43,111.52 51.93,109.36 48.13,106.31 C44.33,103.26 41.8,98.95 40.34,100.5 Z" fill="#CDAC93"/>
  <path d="M52.07,103.74 C51.3,105.52 55.31,108.9 61.13,109.84 C66.95,110.78 73.08,109.27 72.91,107.82 C72.77,106.6 69.58,107.73 61.79,106.04 C55.81,104.74 53.01,101.58 52.07,103.74 Z" fill="#CDAC93"/>
  <path d="M60.85,98.34 C60.63,99.78 63.85,101.39 68.78,101.16 C73.71,100.93 77.04,98.72 76.85,97.73 C76.66,96.74 72.16,97.96 68.64,98.01 C65.12,98.06 61.32,95.29 60.85,98.34 Z" fill="#CDAC93"/>
  <path d="M65.45,114.3 C65.4,116.76 72.74,116.42 77.37,114.77 C83.05,112.75 86.05,108.11 85.21,107.26 C84.37,106.42 81.36,110.31 75.5,111.76 C72.79,112.43 65.5,111.86 65.45,114.3 Z" fill="#CDAC93"/>
</svg>
